X:81
T:RVW2/2/81 The Bonny Blue Handkerchief
C:John Denny, Billericay, Essex, 25 April 1904
L:1/4
Q:1/4=140
M:3/4
I:linebreak $
K:G
"^(Editorial suggestion  " d/d/ | g f g | e d B | g f g | e2 a | e d B |$ c e c | A3/2 B/ A | 
w: It was|ear- ly one|mor- ning I|chanced for to|stray a|bon- ny young|las- sy came|trip- ping that|
G2 d | d e f | g f g |$ e d B | g2 g/g/ | e d B | c/d/ e c | A3/2 B/ A | G2 |] 
w: way with|cheeks red as|ro- ses and|sweet- ly did|sing "with the|bon- ny blue|hand- ker- chief tied|un- der my|chin."|



